X: 5679
T: Byrne's
R: hornpipe
M: 4/4
K: Dmajor
|:AG|F2 GE AF D2|dA (3Bcd ecAg|fdge fdec|dcdf ecAG|
F2 GE AF D2|dA (3Bcd ecAG|FAdA (3Bcd ec|d2 dc d2:|
|:cd|ecAc efgf|ecAc ef (3gfe|fdge fdec|dcdf ecAG|
F2 GE AF D2|dA (3Bcd ecAG|FAdA (3Bcd ec|d2 dc d2:|

